cmd/conneroh/_static/dist/svg/wheat-off.svg

<svg height="18" viewBox="0 0 18 18" width="18" xmlns="http://www.w3.org/2000/svg"><g fill="none" stroke="#fff" stroke-linecap="round" stroke-linejoin="round" stroke-width="2" transform="scale(.75)"><path d="m2 22 10-10m4-4-1.171875 1.171875m-11.359375 3.359375 1.53125-1.53125 1.53125 1.53125c1.359375 1.364583 1.359375 3.572917 0 4.9375l-1.53125 1.53125-1.53125-1.53125c-1.359375-1.364583-1.359375-3.572917 0-4.9375m4.53125-4.53125-.53125.53125c-1.359375 1.364583-1.359375 3.572917 0 4.9375l1.53125 1.53125 1.53125-1.53125c.546875-.546875.880208-1.25.979167-1.96875m-.598959-6.239583c.151042-.260417.338542-.510417.557292-.729167l1.53125-1.53125 1.53125 1.53125c1.244792 1.25 1.364583 3.229167.28125 4.619792m5.1875-7.151042h2v2c0 2.208333-1.791667 4-4 4h-2v-2c0-2.208333 1.791667-4 4-4"/><path d="m11.46875 17.46875 1.53125 1.53125-1.53125 1.53125c-1.364583 1.359375-3.572917 1.359375-4.9375 0l-1.53125-1.53125 1.53125-1.53125c1.364583-1.359375 3.572917-1.359375 4.9375 0m4.53125-1.46875-.53125.53125c-1.364583 1.359375-3.572917 1.359375-4.9375 0l-1.53125-1.53125 1.53125-1.53125c.53125-.53125 1.223958-.869792 1.96875-.979167m6.239583.598959c.260417-.151042.510417-.338542.729167-.557292l1.53125-1.53125-1.53125-1.53125c-1.25-1.244792-3.229167-1.364583-4.619792-.28125m-12.848958-7.1875 20 20"/></g></svg>

<svg xmlns="http://www.w3.org/2000/svg" width="24" height="24" fill="none" stroke="white" stroke-linecap="round" stroke-linejoin="round" stroke-width="2">
    <path d="m2 22 10-10m4-4-1.17 1.17M3.47 12.53 5 11l1.53 1.53a3.5 3.5 0 0 1 0 4.94L5 19l-1.53-1.53a3.5 3.5 0 0 1 0-4.94M8 8l-.53.53a3.5 3.5 0 0 0 0 4.94L9 15l1.53-1.53c.55-.55.88-1.25.98-1.97m-.6-6.24c.15-.26.34-.51.56-.73L13 3l1.53 1.53a3.5 3.5 0 0 1 .28 4.62M20 2h2v2a4 4 0 0 1-4 4h-2V6a4 4 0 0 1 4-4"/>
    <path d="M11.47 17.47 13 19l-1.53 1.53a3.5 3.5 0 0 1-4.94 0L5 19l1.53-1.53a3.5 3.5 0 0 1 4.94 0M16 16l-.53.53a3.5 3.5 0 0 1-4.94 0L9 15l1.53-1.53a3.5 3.5 0 0 1 1.97-.98m6.24.6c.26-.15.51-.34.73-.56L21 11l-1.53-1.53a3.5 3.5 0 0 0-4.62-.28M2 2l20 20"/>
</svg>
